flags/mq-old.svg

<svg width="512" height="512" viewBox="0 0 512 512" fill="none" xmlns="http://www.w3.org/2000/svg">
<rect width="512" height="512" fill="var(--flag-palette-blue, #0052b4)"/>
<path d="M512 288V224H288V0H224V224H0V288H224V512H288V288H512Z" fill="var(--flag-palette-white, #eeeeee)"/>
<path fill-rule="evenodd" clip-rule="evenodd" d="M100.256 131.534C99.0957 132.675 98.4309 134.227 98.4047 135.854H98.5047C98.5046 136.676 98.6682 137.491 98.986 138.249C99.3038 139.008 99.7695 139.696 100.356 140.273C100.942 140.85 101.638 141.305 102.401 141.611C103.165 141.916 103.982 142.067 104.805 142.054H155.805V173.754H104.705C95.1286 173.057 86.1711 168.762 79.6326 161.731C73.0942 154.7 69.4597 145.455 69.4597 135.854C69.4597 126.252 73.0942 117.007 79.6326 109.976C86.1711 102.945 95.1286 98.6496 104.705 97.9535H117.905C119.549 97.9535 121.126 97.3003 122.289 96.1376C123.451 94.9748 124.105 93.3979 124.105 91.7535C124.105 90.1092 123.451 88.5322 122.289 87.3695C121.126 86.2067 119.549 85.5535 117.905 85.5535H89.4047C76.8047 85.4535 66.8047 77.2535 66.8047 67.2535C66.8047 57.1535 77.1047 48.8535 89.7047 48.8535C95.8047 48.8535 101.305 50.8535 105.405 53.8535H117.805C127.533 54.353 136.697 58.5693 143.406 65.6315C150.115 72.6937 153.856 82.0626 153.856 91.8035C153.856 101.544 150.115 110.913 143.406 117.976C136.697 125.038 127.533 129.254 117.805 129.754H104.605C102.978 129.753 101.416 130.393 100.256 131.534ZM387.795 135.854C387.822 134.228 388.486 132.676 389.646 131.535C390.806 130.394 392.368 129.754 393.995 129.754H407.195C416.923 129.255 426.088 125.039 432.797 117.977C439.506 110.914 443.247 101.545 443.247 91.8045C443.247 82.0636 439.506 72.6947 432.797 65.6325C426.088 58.5702 416.923 54.354 407.195 53.8545H394.795C390.695 50.8545 385.195 48.8545 379.095 48.8545C366.495 48.8545 356.195 57.1545 356.195 67.2545C356.195 77.2545 366.195 85.4545 378.795 85.5545H407.295C408.94 85.5545 410.517 86.2077 411.679 87.3704C412.842 88.5332 413.495 90.1102 413.495 91.7545C413.495 93.3988 412.842 94.9758 411.679 96.1385C410.517 97.3013 408.94 97.9545 407.295 97.9545H394.095C384.519 98.6506 375.562 102.946 369.023 109.977C362.485 117.008 358.85 126.253 358.85 135.854C358.85 145.456 362.485 154.701 369.023 161.732C375.562 168.763 384.519 173.058 394.095 173.754H445.195V142.054H394.195C393.373 142.068 392.556 141.917 391.792 141.612C391.028 141.306 390.333 140.851 389.746 140.274C389.16 139.697 388.694 139.009 388.377 138.25C388.059 137.492 387.895 136.677 387.895 135.854H387.795ZM100.256 420.926C99.0957 422.067 98.4309 423.618 98.4047 425.245H98.5047C98.5046 426.068 98.6682 426.882 98.986 427.641C99.3038 428.4 99.7695 429.088 100.356 429.665C100.942 430.242 101.638 430.697 102.401 431.002C103.165 431.308 103.982 431.458 104.805 431.445H155.805V463.145H104.705C95.1286 462.449 86.1711 458.154 79.6326 451.123C73.0942 444.092 69.4597 434.846 69.4597 425.245C69.4597 415.644 73.0942 406.398 79.6326 399.367C86.1711 392.336 95.1286 388.041 104.705 387.345H117.905C119.549 387.345 121.126 386.692 122.289 385.529C123.451 384.366 124.105 382.789 124.105 381.145C124.105 379.501 123.451 377.924 122.289 376.761C121.126 375.598 119.549 374.945 117.905 374.945H89.4047C76.8047 374.845 66.8047 366.645 66.8047 356.645C66.8047 346.545 77.1047 338.245 89.7047 338.245C95.8047 338.245 101.305 340.245 105.405 343.245H117.805C127.533 343.745 136.697 347.961 143.406 355.023C150.115 362.085 153.856 371.454 153.856 381.195C153.856 390.936 150.115 400.305 143.406 407.367C136.697 414.429 127.533 418.646 117.805 419.145H104.605C102.978 419.145 101.416 419.784 100.256 420.926ZM389.646 420.927C388.486 422.068 387.822 423.619 387.795 425.246H387.895C387.895 426.069 388.059 426.883 388.377 427.642C388.694 428.401 389.16 429.089 389.746 429.666C390.333 430.243 391.028 430.698 391.792 431.003C392.556 431.309 393.373 431.459 394.195 431.446H445.195V463.146H394.095C384.519 462.45 375.562 458.155 369.023 451.124C362.485 444.093 358.85 434.847 358.85 425.246C358.85 415.645 362.485 406.399 369.023 399.368C375.562 392.337 384.519 388.042 394.095 387.346H407.295C408.94 387.346 410.517 386.693 411.679 385.53C412.842 384.367 413.495 382.79 413.495 381.146C413.495 379.502 412.842 377.925 411.679 376.762C410.517 375.599 408.94 374.946 407.295 374.946H378.795C366.195 374.846 356.195 366.646 356.195 356.646C356.195 346.546 366.495 338.246 379.095 338.246C385.195 338.246 390.695 340.246 394.795 343.246H407.195C416.923 343.746 426.088 347.962 432.797 355.024C439.506 362.086 443.247 371.455 443.247 381.196C443.247 390.937 439.506 400.306 432.797 407.368C426.088 414.43 416.923 418.647 407.195 419.146H393.995C392.368 419.146 390.806 419.785 389.646 420.927Z" fill="var(--flag-palette-white, #eeeeee)"/>
</svg>

<svg xmlns="http://www.w3.org/2000/svg" width="512" height="512" fill="none"><path fill="var(--flag-palette-blue, #0052b4)" d="M0 0h512v512H0z"/><path fill="var(--flag-palette-white, #eeeeee)" d="M512 288v-64H288V0h-64v224H0v64h224v224h64V288z"/><path fill="var(--flag-palette-white, #eeeeee)" fill-rule="evenodd" d="M100.3 131.5a6 6 0 0 0-1.9 4.4h.1a6 6 0 0 0 6.3 6.2h51v31.7h-51.1a38 38 0 0 1 0-75.8H118a6.2 6.2 0 0 0 0-12.4H89.4c-12.6-.1-22.6-8.3-22.6-18.3s10.3-18.4 22.9-18.4c6.1 0 11.6 2 15.7 5h12.4a38 38 0 0 1 0 75.9h-13.2q-2.5 0-4.3 1.7m287.5 4.4a6 6 0 0 1 6.2-6.1h13.2a38 38 0 0 0 0-76h-12.4c-4.1-3-9.6-5-15.7-5-12.6 0-23 8.4-23 18.5s10 18.2 22.7 18.3h28.5a6.2 6.2 0 1 1 0 12.4h-13.2a38 38 0 0 0 0 75.8h51V142h-51a6 6 0 0 1-6.2-6.2zm-287.5 285a6 6 0 0 0-1.9 4.3h.1a6 6 0 0 0 6.3 6.2h51v31.7h-51.1a38 38 0 0 1 0-75.8H118a6.2 6.2 0 0 0 0-12.4H89.4c-12.6 0-22.6-8.3-22.6-18.3s10.3-18.4 22.9-18.4c6.1 0 11.6 2 15.7 5h12.4a38 38 0 0 1 0 76h-13.2q-2.5 0-4.3 1.7m289.3 0a6 6 0 0 0-1.8 4.3 6 6 0 0 0 6.4 6.2h51v31.7H394a38 38 0 0 1 0-75.8h13.2a6.2 6.2 0 1 0 0-12.4h-28.5c-12.6 0-22.6-8.3-22.6-18.3s10.3-18.4 22.9-18.4c6 0 11.6 2 15.7 5h12.4a38 38 0 0 1 0 76H394q-2.5 0-4.4 1.7" clip-rule="evenodd"/></svg>
